X: 1002
T: The Laundry . or Hot Pot .
N: Pub: J. Walsh, London, 1748
Z: 2012 John Chambers <jc:trillian.mit.edu>
M: 2/4
L: 1/16
K: G
V: 1
|: GABc d4 | g2g2 e4 | d2z2 B2z2 | AGAB G4 :|
|: g2g2Te2d2 | g2g2TA2G2 | g2g2f2f2 | egfe d4 |
   GABc d4 | g2g2 e4 | d2z2 B2z2 | AGAB G4 :|
V: 2 clef=bass middle=d
|: g4 g4 | b2g2 c'4 | b2z2 g2z2 | f2d2 g4 :|
|: b4 c'2b2 | b4 f2g2 | b2g2d'2f2 | g2a2 defd |
   g4 g4 | b2g2 c'4 | b2z2 g2z2 | f2d2 g4 :|
%%begintext align
    The First Cu. cast off one Cu. and turn .|
    Cast off another Cu. and turn :|
    Lead up to the top foot it and cast off .|.
    Hands round four with the Third Cu. Right and left at top :|:
%%endtext

%%sep 1 1 500
%%sep 1 1 500

